symbols/web/data_usage/materialsymbolsoutlined/data_usage_wght100grad200_48px.svg

<svg xmlns="http://www.w3.org/2000/svg" height="48" width="48"><path d="m40.05 31.05-1.1-.7q.7-1.5 1-3.1.3-1.6.3-3.25 0-6.25-4.1-10.825Q32.05 8.6 25.9 7.9V6.5q6.75.55 11.225 5.575T41.6 23.95q0 1.8-.375 3.6t-1.175 3.5ZM24 41.6q-3.65 0-6.825-1.4Q14 38.8 11.6 36.425 9.2 34.05 7.8 30.85T6.4 24q0-6.75 4.5-11.75T22.2 6.5v1.4q-6.2.75-10.3 5.325Q7.8 17.8 7.8 24q0 6.75 4.75 11.475T24 40.2q3.95 0 7.425-1.7 3.475-1.7 5.725-4.9l1.15.85q-2.55 3.4-6.3 5.275-3.75 1.875-8 1.875Z"/></svg>

<svg xmlns="http://www.w3.org/2000/svg" height="48" width="48"><path d="M40.05 31.05 38.95 30.35Q39.65 28.85 39.95 27.25Q40.25 25.65 40.25 24Q40.25 17.75 36.15 13.175Q32.05 8.6 25.9 7.9V6.5Q32.65 7.05 37.125 12.075Q41.6 17.1 41.6 23.95Q41.6 25.75 41.225 27.55Q40.85 29.35 40.05 31.05ZM24 41.6Q20.35 41.6 17.175 40.2Q14 38.8 11.6 36.425Q9.2 34.05 7.8 30.85Q6.4 27.65 6.4 24Q6.4 17.25 10.9 12.25Q15.4 7.25 22.2 6.5V7.9Q16 8.65 11.9 13.225Q7.8 17.8 7.8 24Q7.8 30.75 12.55 35.475Q17.3 40.2 24 40.2Q27.95 40.2 31.425 38.5Q34.9 36.8 37.15 33.6L38.3 34.45Q35.75 37.85 32 39.725Q28.25 41.6 24 41.6Z"/></svg>
